!!!COM: Music21
!!!OTL: Mariquiña
!!!OMV: pezas_muineiras_mariquina_mariquina-partitura.musicxml
**kern
*I"Bagpipes
*I'Bag
*clefG^2
*k[]
*M6/8
=1
!LO:TX:a:t=Allegro
*MM180
!LO:TX:a:t=[quarter]=180
2r
16ggLL
16ff
16ee
16ddJJ
=||
8ccL
8ee
8ggJ
8cccL
8bb
8aaJ
=
8ggML
8ee
8ccJ
8eeL
8gg
8eeJ
=
8ffML
8dd
8bJ
8ddL
8ff
8ddJ
=
8eemL
8dd
[8ccJ
8ccL]
16ggL
16ff
16ee
16ddJJ
=
8ccL
8ee
8ggJ
8cccL
8bb
8aaJ
!!linebreak:original
=
8ggML
8ee
8ccJ
8eeL
8gg
8eeJ
=
8ffML
8dd
8bJ
8ddL
8ff
8eeJ
=
2cc
16ggLL
16ff
16ee
16ddJJ
=||
8ccL
8ee
8ggJ
8cccL
8bb
8aaJ
=
8ggML
8ee
8ccJ
8eeL
8gg
8eeJ
=
8ffML
8dd
8bJ
8ddL
8ff
8ddJ
!!linebreak:original
=
8eemL
8dd
[8ccJ
8ccL]
16ggL
16ff
16ee
16ddJJ
=
8ccL
8ee
8ggJ
8cccL
8bb
8aaJ
!!linebreak:original
=
8ggML
8ee
8ccJ
8eeL
8gg
8eeJ
=
8ffML
8ee
8ffJ
8ggL
8aa
8bbJ
=||
2ccc
16ccLL
16dd
16ee
16ffJJ
=||
8ggL
8ee
8ffJ
8ggL
8ff
8ggJ
!!linebreak:original
=
8aaL
8ff
8ggJ
8aaL
8gg
8aaJ
=
8bbL
8gg
8aaJ
8bbL
8aa
8bbJ
=
8cccL
8bb
8aaJ
8ggL
16ccL
16dd
16ee
16ffJJ
=
8ggL
8ee
8ffJ
8ggL
8ff
8ggJ
=
8aaL
8ff
8ggJ
8aaL
8gg
8aaJ
=
8bbL
8gg
8aaJ
8bbL
8aa
8bbJ
!!linebreak:original
=
2ccc
16ccLL
16dd
16ee
16ffJJ
=||
8ggL
8ee
8ffJ
8ggL
8ff
8ggJ
!!linebreak:original
=
8aaL
8ff
8ggJ
8aaL
8gg
8aaJ
=
8bbL
8gg
8aaJ
8bbL
8aa
8bbJ
=
8cccL
8bb
8aaJ
8ggL
16ccL
16dd
16ee
16ffJJ
=
8ggL
8ee
8ffJ
8ggL
8ff
8ggJ
=
8aaL
8ff
8ggJ
8aaL
8gg
8aaJ
=
8bbL
8gg
8aaJ
8bbL
8aa
8bbJ
=
*k[b-]
*F:
2ccc
8cccL
8bb-J
!!linebreak:original
=||
16cccLL
16bb-
16aa
16ggJ
8ffJ
8ffL
8aa
8cccJ
=
16bb-LL
16aa
16gg
16ffJ
8eeJ
8ccL
8ee
8ggJ
=
8cccL
8bb-
8aaJ
8ggL
8aa
8bb-J
=
16cccLL
16bb-
16aa
16ggJ
[8ffJ
8ffL]
8ccc
8bb-J
!!linebreak:original
=
16cccLL
16bb-
16aa
16ggJ
8ffJ
8ffL
8aa
8cccJ
=
16bb-LL
16aa
16gg
16ffJ
8eeJ
8ccL
8ee
8ggJ
=
8cccL
8bb-
8aaJ
8bb-L
8aa
8ggJ
=
2ff
8cccL
8bb-J
=||
16cccLL
16bb-
16aa
16ggJ
8ffJ
8ffL
8aa
8cccJ
=
16bb-LL
16aa
16gg
16ffJ
8eeJ
8ccL
8ee
8ggJ
!!linebreak:original
=
8cccL
8bb-
8aaJ
8ggL
8aa
8bb-J
=
16cccLL
16bb-
16aa
16ggJ
[8ffJ
8ffL]
8ccc
8bb-J
!!pagebreak:original
=
16cccLL
16bb-
16aa
16ggJ
8ffJ
8ffL
8aa
8cccJ
=
16bb-LL
16aa
16gg
16ffJ
8eeJ
8ccL
8ee
8ggJ
=
8cccL
8bb-
8aaJ
8bb-L
8aa
8ggJ
=
*k[]
*C:
2ff
16ggLL
16ff
16ee
16ddJJ
=||
4ccc
8r
4gg
8r
=
4ccc
2r
==
*-
